X: 24635
T: MacArthur Road
R: reel
M: 4/4
K: Dmajor
|:dA A2 ABde|f3d ed (3Bcd|e3f ed (3Bcd|effd edBe|
dA A2 ABde|f3d ed (3Bcd|e3f edBA|Bdde d3e:|
|:fA A2 fAgA|fAgA fd (3Bcd|e3f ed (3Bcd|effd ed (3Bcd|
fA A2 fAgA|fAgA fd (3Bcd|e3f edBA|Bdde d3e|
fA A2 fAgA|fAgA fd (3Bcd|e3f ed (3Bcd|effd edBe|
dA A2 ABde|f3d ed (3Bcd|e3f edBA|Bdde d3e||

